;FLAVOR:Marlin
;TIME:1517
;Filament used: 0.73161m
;Layer height: 0.15
;MINX:82.888
;MINY:84.134
;MINZ:0.3
;MAXX:117.112
;MAXY:118.354
;MAXZ:34.8
;Generated with Cura_SteamEngine 4.12.1
M140 S60
M105
M190 S60
M104 S200
M105
M109 S200
M82 ;absolute extrusion mode
G21 ;metric values
G90 ;absolute positioning
M82 ;set extruder to absolute mode
M107 ;start with the fan off
G28 X0 Y0 ;move X/Y to min endstops
G28 Z0 ;move Z to min endstops
G1 Z15.0 F9000 ;move the platform down 15mm
G92 E0 ;zero the extruded length
G1 F200 E3 ;extrude 3mm of feed stock
G92 E0 ;zero the extruded length again
G1 F9000
;Put printing message on LCD screen
M117 Printing...
G92 E0
G92 E0
G1 F1500 E-6.5
;LAYER_COUNT:232
;LAYER:0
M107
G0 F3600 X87.975 Y89.069 Z0.3
;TYPE:SKIRT
G1 F1500 E0
G1 F1800 X88.425 Y88.64 E0.03102
G1 X88.826 Y88.283 E0.0578
G1 X89.296 Y87.893 E0.08827
G1 X89.693 Y87.585 E0.11334
G1 X90.201 Y87.216 E0.14467
G1 X90.628 Y86.927 E0.17039
G1 X91.144 Y86.602 E0.20081
G1 X91.589 Y86.342 E0.22653
G1 X92.125 Y86.052 E0.25693
G1 X92.13 Y86.062 E0.25749
G1 X92.63 Y85.799 E0.28567
G1 X93.187 Y85.547 E0.31617
G1 X93.621 Y85.367 E0.33962
G1 X94.2 Y85.146 E0.37053
G1 X94.696 Y84.975 E0.39671
G1 X95.277 Y84.797 E0.42703
G1 X95.778 Y84.662 E0.45291
G1 X96.391 Y84.518 E0.48433
G1 X96.886 Y84.418 E0.50952
G1 X97.483 Y84.318 E0.53972
G1 X98.014 Y84.248 E0.56644
G1 X98.649 Y84.186 E0.59827
G1 X99.158 Y84.153 E0.62372
G1 X99.753 Y84.134 E0.65342
G1 X100.266 Y84.134 E0.67901
G1 X100.886 Y84.155 E0.70996
G1 X101.392 Y84.189 E0.73527
G1 X102.007 Y84.25 E0.7661
G1 X102.521 Y84.318 E0.79197
G1 X103.108 Y84.416 E0.82166
G1 X103.623 Y84.52 E0.84787
G1 X104.243 Y84.667 E0.87966
G1 X104.729 Y84.799 E0.90478
G1 X105.31 Y84.977 E0.9351
G1 X105.806 Y85.148 E0.96127
G1 X106.385 Y85.369 E0.99219
G1 X106.847 Y85.562 E1.01717
G1 X107.407 Y85.818 E1.04789
G1 X107.884 Y86.056 E1.07449
G1 X108.424 Y86.349 E1.10514
G1 X108.861 Y86.605 E1.13041
G1 X109.377 Y86.93 E1.16083
G1 X109.812 Y87.225 E1.18705
G1 X110.32 Y87.595 E1.21841
G1 X110.716 Y87.904 E1.24347
G1 X111.186 Y88.295 E1.27397
G1 X111.58 Y88.645 E1.30026
G1 X112.03 Y89.074 E1.33128
G1 X112.392 Y89.443 E1.35707
G1 X112.799 Y89.886 E1.38708
G1 X113.128 Y90.269 E1.41227
G1 X113.514 Y90.748 E1.44296
G1 X113.821 Y91.155 E1.46839
G1 X114.179 Y91.664 E1.49944
G1 X114.466 Y92.102 E1.52557
G1 X114.783 Y92.624 E1.55603
G1 X115.04 Y93.081 E1.58219
G1 X115.33 Y93.64 E1.61361
G1 X115.552 Y94.106 E1.63936
G1 X115.793 Y94.657 E1.66937
G1 X115.976 Y95.112 E1.69383
G1 X116.187 Y95.691 E1.72458
G1 X116.354 Y96.206 E1.75159
G1 X116.528 Y96.811 E1.783
G1 X116.654 Y97.311 E1.80872
G1 X116.782 Y97.9 E1.83879
G1 X116.875 Y98.404 E1.86436
G1 X116.968 Y99.027 E1.89579
G1 X117.026 Y99.531 E1.9211
G1 X117.076 Y100.131 E1.95114
G1 X117.102 Y100.652 E1.97716
G1 X117.112 Y101.267 E2.00785
G1 X117.104 Y101.772 E2.03305
G1 X117.074 Y102.39 E2.06391
G1 X117.031 Y102.915 E2.09019
G1 X116.96 Y103.524 E2.12078
G1 X116.885 Y104.024 E2.14601
G1 X116.772 Y104.642 E2.17735
G1 X116.657 Y105.167 E2.20416
G1 X116.505 Y105.763 E2.23485
G1 X116.366 Y106.244 E2.25983
G1 X116.179 Y106.82 E2.29004
G1 X116.003 Y107.306 E2.31583
G1 X115.77 Y107.889 E2.34715
G1 X115.565 Y108.358 E2.37269
G1 X115.305 Y108.902 E2.40277
G1 X115.058 Y109.374 E2.42935
G1 X114.749 Y109.921 E2.46069
G1 X114.49 Y110.348 E2.48561
G1 X114.163 Y110.849 E2.51545
G1 X113.868 Y111.27 E2.5411
G1 X113.494 Y111.768 E2.57217
G1 X113.169 Y112.172 E2.59804
G1 X112.768 Y112.638 E2.62871
G1 X112.415 Y113.022 E2.65474
G1 X111.975 Y113.469 E2.68603
G1 X111.607 Y113.819 E2.71136
G1 X111.155 Y114.222 E2.74158
G1 X110.752 Y114.558 E2.76775
G1 X110.262 Y114.939 E2.79872
G1 X109.848 Y115.239 E2.82423
G1 X109.343 Y115.581 E2.85466
G1 X108.896 Y115.862 E2.881
G1 X108.352 Y116.179 E2.91241
G1 X107.903 Y116.422 E2.93788
G1 X107.351 Y116.697 E2.96865
G1 X106.888 Y116.909 E2.99405
G1 X106.332 Y117.142 E3.02413
G1 X105.848 Y117.326 E3.04996
G1 X105.265 Y117.526 E3.08071
G1 X104.778 Y117.675 E3.10612
G1 X104.174 Y117.839 E3.13735
G1 X103.665 Y117.96 E3.16345
G1 X103.062 Y118.081 E3.19413
G1 X102.545 Y118.166 E3.22027
G1 X101.945 Y118.245 E3.25046
G1 X101.452 Y118.294 E3.27518
G1 X100.83 Y118.336 E3.30628
G1 X100.305 Y118.354 E3.33249
G1 X99.695 Y118.354 E3.36292
G1 X99.173 Y118.337 E3.38898
G1 X98.547 Y118.295 E3.42028
G1 X98.041 Y118.244 E3.44565
G1 X97.439 Y118.164 E3.47595
G1 X96.932 Y118.08 E3.50159
G1 X96.329 Y117.959 E3.53227
G1 X95.809 Y117.835 E3.55894
G1 X95.205 Y117.67 E3.59018
G1 X94.729 Y117.524 E3.61502
G1 X94.146 Y117.324 E3.64577
G1 X93.651 Y117.135 E3.67221
G1 X93.095 Y116.901 E3.7023
G1 X92.648 Y116.696 E3.72684
G1 X92.095 Y116.421 E3.75765
G1 X91.631 Y116.17 E3.78397
G1 X91.094 Y115.856 E3.815
G1 X90.655 Y115.58 E3.84087
G1 X90.146 Y115.235 E3.87155
G1 X89.731 Y114.933 E3.89716
G1 X89.239 Y114.55 E3.92826
G1 X88.835 Y114.213 E3.95451
G1 X88.387 Y113.813 E3.98447
G1 X88.017 Y113.461 E4.00995
G1 X87.575 Y113.011 E4.04142
G1 X87.229 Y112.634 E4.06695
G1 X86.827 Y112.167 E4.09769
G1 X86.498 Y111.758 E4.12388
G1 X86.129 Y111.266 E4.15456
G1 X85.838 Y110.85 E4.17989
G1 X85.507 Y110.343 E4.2101
G1 X85.239 Y109.902 E4.23584
G1 X84.932 Y109.356 E4.2671
G1 X84.688 Y108.886 E4.29352
G1 X84.429 Y108.342 E4.32357
G1 X84.233 Y107.894 E4.34797
G1 X83.999 Y107.311 E4.37931
G1 X83.818 Y106.811 E4.40584
G1 X83.631 Y106.234 E4.4361
G1 X83.488 Y105.736 E4.46195
G1 X83.337 Y105.137 E4.49277
G1 X83.228 Y104.637 E4.5183
G1 X83.115 Y104.021 E4.54955
G1 X83.039 Y103.516 E4.57503
G1 X82.968 Y102.906 E4.60566
G1 X82.925 Y102.371 E4.63244
G1 X82.896 Y101.755 E4.66321
G1 X82.888 Y101.261 E4.68786
G1 X82.898 Y100.647 E4.71849
G1 X82.925 Y100.114 E4.74512
G1 X82.976 Y99.513 E4.77521
G1 X83.034 Y99.018 E4.80007
G1 X83.127 Y98.397 E4.8314
G1 X83.218 Y97.901 E4.85656
G1 X83.346 Y97.31 E4.88673
G1 X83.478 Y96.787 E4.91364
G1 X83.653 Y96.184 E4.94497
G1 X83.814 Y95.691 E4.97084
G1 X84.025 Y95.111 E5.00163
G1 X84.211 Y94.646 E5.02662
G1 X84.453 Y94.094 E5.05669
G1 X84.668 Y93.644 E5.08157
G1 X84.957 Y93.085 E5.11296
G1 X85.228 Y92.603 E5.14055
G1 X85.543 Y92.087 E5.17071
G1 X85.822 Y91.662 E5.19608
G1 X86.183 Y91.149 E5.22737
G1 X86.49 Y90.742 E5.25281
G1 X86.877 Y90.262 E5.28357
G1 X87.212 Y89.874 E5.30914
G1 X87.62 Y89.431 E5.33919
G1 X87.975 Y89.069 E5.36448
G0 F3600 X88.251 Y89.359
G1 F1800 X88.701 Y88.93 E5.3955
G1 X89.082 Y88.591 E5.42094
G1 X89.552 Y88.201 E5.45141
G1 X89.928 Y87.909 E5.47517
G1 X90.436 Y87.54 E5.50649
G1 X90.841 Y87.265 E5.53091
G1 X91.357 Y86.94 E5.56134
G1 X91.78 Y86.694 E5.58575
G1 X92.316 Y86.404 E5.61615
G1 X92.32 Y86.412 E5.6166
G1 X92.795 Y86.164 E5.64333
G1 X93.352 Y85.912 E5.67383
G1 X93.763 Y85.74 E5.69606
G1 X94.342 Y85.519 E5.72698
G1 X94.813 Y85.358 E5.75181
G1 X95.394 Y85.18 E5.78213
G1 X95.87 Y85.051 E5.80674
G1 X96.483 Y84.907 E5.83815
G1 X96.953 Y84.813 E5.86206
G1 X97.55 Y84.713 E5.89226
G1 X98.053 Y84.646 E5.91758
G1 X98.688 Y84.584 E5.94941
G1 X99.171 Y84.553 E5.97356
G1 X99.766 Y84.534 E6.00326
G1 X100.253 Y84.534 E6.02755
G1 X100.873 Y84.555 E6.0585
G1 X101.352 Y84.587 E6.08245
G1 X101.967 Y84.648 E6.11329
G1 X102.456 Y84.713 E6.1379
G1 X103.043 Y84.811 E6.16759
G1 X103.531 Y84.91 E6.19243
G1 X104.151 Y85.057 E6.22422
G1 X104.612 Y85.182 E6.24805
G1 X105.193 Y85.36 E6.27837
G1 X105.664 Y85.521 E6.3032
G1 X106.243 Y85.742 E6.33412
G1 X106.681 Y85.926 E6.35782
G1 X107.241 Y86.182 E6.38854
G1 X107.693 Y86.408 E6.41375
G1 X108.233 Y86.701 E6.4444
G1 X108.648 Y86.943 E6.46837
G1 X109.164 Y87.268 E6.49879
G1 X109.577 Y87.548 E6.52369
G1 X110.085 Y87.918 E6.55504
G1 X110.461 Y88.211 E6.57882
G1 X110.931 Y88.602 E6.60932
G1 X111.304 Y88.935 E6.63427
G1 X111.754 Y89.364 E6.66529
G1 X112.097 Y89.714 E6.68974
G1 X112.504 Y90.157 E6.71975
G1 X112.817 Y90.52 E6.74366
G1 X113.203 Y90.999 E6.77435
G1 X113.494 Y91.385 E6.79847
G1 X113.852 Y91.894 E6.82952
G1 X114.124 Y92.31 E6.85431
G1 X114.441 Y92.832 E6.88478
G1 X114.685 Y93.265 E6.90958
G1 X114.975 Y93.824 E6.941
G1 X115.186 Y94.267 E6.96548
G1 X115.427 Y94.818 E6.99548
G1 X115.6 Y95.249 E7.01865
G1 X115.811 Y95.828 E7.0494
G1 X115.97 Y96.317 E7.07505
G1 X116.144 Y96.922 E7.10646
G1 X116.263 Y97.396 E7.13084
G1 X116.391 Y97.985 E7.16091
G1 X116.479 Y98.463 E7.18516
G1 X116.572 Y99.086 E7.21658
G1 X116.627 Y99.564 E7.24059
G1 X116.677 Y100.164 E7.27063
G1 X116.702 Y100.659 E7.29535
G1 X116.712 Y101.274 E7.32604
G1 X116.704 Y101.753 E7.34994
G1 X116.674 Y102.371 E7.38081
G1 X116.633 Y102.869 E7.40574
G1 X116.562 Y103.478 E7.43633
G1 X116.491 Y103.952 E7.46024
G1 X116.378 Y104.57 E7.49158
G1 X116.269 Y105.068 E7.51702
G1 X116.117 Y105.664 E7.5477
G1 X115.985 Y106.12 E7.57139
G1 X115.798 Y106.696 E7.6016
G1 X115.632 Y107.157 E7.62605
G1 X115.399 Y107.74 E7.65737
G1 X115.204 Y108.185 E7.68161
G1 X114.944 Y108.729 E7.71169
G1 X114.71 Y109.178 E7.73695
G1 X114.401 Y109.725 E7.76829
G1 X114.155 Y110.13 E7.79193
G1 X113.828 Y110.631 E7.82178
G1 X113.548 Y111.03 E7.8461
G1 X113.174 Y111.528 E7.87717
G1 X112.866 Y111.911 E7.90169
G1 X112.465 Y112.377 E7.93236
G1 X112.13 Y112.741 E7.95704
G1 X111.69 Y113.188 E7.98834
G1 X111.341 Y113.52 E8.01237
G1 X110.889 Y113.923 E8.04258
G1 X110.506 Y114.242 E8.06745
G1 X110.016 Y114.623 E8.09841
G1 X109.623 Y114.908 E8.12263
G1 X109.118 Y115.25 E8.15306
G1 X108.695 Y115.517 E8.17802
G1 X108.151 Y115.834 E8.20943
G1 X107.725 Y116.064 E8.23358
G1 X107.173 Y116.339 E8.26435
G1 X106.733 Y116.54 E8.28848
G1 X106.177 Y116.773 E8.31856
G1 X105.718 Y116.948 E8.34307
G1 X105.135 Y117.148 E8.37382
G1 X104.673 Y117.289 E8.39792
G1 X104.069 Y117.453 E8.42914
G1 X103.586 Y117.567 E8.4539
G1 X102.983 Y117.688 E8.48458
G1 X102.493 Y117.77 E8.50937
G1 X101.893 Y117.849 E8.53956
G1 X101.426 Y117.895 E8.56297
G1 X100.804 Y117.937 E8.59408
G1 X100.305 Y117.954 E8.61899
G1 X99.695 Y117.954 E8.64942
G1 X99.2 Y117.937 E8.67413
G1 X98.574 Y117.895 E8.70543
G1 X98.094 Y117.848 E8.72949
G1 X97.492 Y117.768 E8.75979
G1 X97.011 Y117.687 E8.78413
G1 X96.408 Y117.566 E8.81481
G1 X95.914 Y117.449 E8.84014
G1 X95.31 Y117.284 E8.87137
G1 X94.859 Y117.146 E8.8949
G1 X94.276 Y116.946 E8.92565
G1 X93.806 Y116.767 E8.95075
G1 X93.25 Y116.533 E8.98084
G1 X92.826 Y116.338 E9.00412
G1 X92.273 Y116.063 E9.03494
G1 X91.833 Y115.825 E9.05989
G1 X91.296 Y115.511 E9.09093
G1 X90.879 Y115.249 E9.1155
G1 X90.37 Y114.904 E9.14618
G1 X89.976 Y114.617 E9.1705
G1 X89.484 Y114.234 E9.2016
G1 X89.101 Y113.915 E9.22647
G1 X88.653 Y113.515 E9.25643
G1 X88.303 Y113.18 E9.2806
G1 X87.861 Y112.73 E9.31207
G1 X87.532 Y112.373 E9.33629
G1 X87.13 Y111.906 E9.36704
G1 X86.818 Y111.518 E9.39188
G1 X86.449 Y111.026 E9.42256
G1 X86.173 Y110.631 E9.4466
G1 X85.842 Y110.124 E9.47681
G1 X85.588 Y109.706 E9.50121
G1 X85.281 Y109.16 E9.53246
G1 X85.05 Y108.714 E9.55752
G1 X84.791 Y108.17 E9.58758
G1 X84.605 Y107.745 E9.61072
G1 X84.371 Y107.162 E9.64206
G1 X84.198 Y106.687 E9.66728
G1 X84.011 Y106.11 E9.69754
G1 X83.875 Y105.638 E9.72205
G1 X83.724 Y105.039 E9.75287
G1 X83.621 Y104.565 E9.77707
G1 X83.508 Y103.949 E9.80831
G1 X83.437 Y103.47 E9.83247
G1 X83.366 Y102.86 E9.86311
G1 X83.324 Y102.352 E9.88854
G1 X83.295 Y101.736 E9.91931
G1 X83.288 Y101.267 E9.94271
G1 X83.298 Y100.653 E9.97335
G1 X83.324 Y100.148 E9.99857
G1 X83.375 Y99.547 E10.02867
G1 X83.43 Y99.077 E10.05227
G1 X83.523 Y98.456 E10.0836
G1 X83.609 Y97.986 E10.10744
G1 X83.737 Y97.395 E10.13761
G1 X83.862 Y96.899 E10.16313
G1 X84.037 Y96.296 E10.19445
G1 X84.19 Y95.828 E10.21902
G1 X84.401 Y95.248 E10.24981
G1 X84.578 Y94.807 E10.27352
G1 X84.82 Y94.255 E10.30359
G1 X85.024 Y93.828 E10.3272
G1 X85.313 Y93.269 E10.35859
G1 X85.57 Y92.811 E10.38479
G1 X85.885 Y92.295 E10.41495
G1 X86.149 Y91.892 E10.43899
G1 X86.51 Y91.379 E10.47028
G1 X86.801 Y90.993 E10.4944
G1 X87.188 Y90.513 E10.52516
G1 X87.506 Y90.145 E10.54943
G1 X87.914 Y89.702 E10.57947
G1 X88.251 Y89.359 E10.60346
G0 F3600 X88.527 Y89.648
G1 F1800 X88.977 Y89.219 E10.63448
G1 X89.337 Y88.899 E10.65851
G1 X89.807 Y88.509 E10.68898
G1 X90.163 Y88.232 E10.71149
G1 X90.671 Y87.863 E10.74281
G1 X91.054 Y87.604 E10.76588
G1 X91.57 Y87.279 E10.7963
G1 X91.97 Y87.045 E10.81942
G1 X92.506 Y86.755 E10.84983
G1 X92.51 Y86.763 E10.85027
G1 X92.96 Y86.528 E10.8756
G1 X93.517 Y86.276 E10.9061
G1 X93.906 Y86.114 E10.92712
G1 X94.485 Y85.893 E10.95804
G1 X94.93 Y85.74 E10.98152
G1 X95.511 Y85.562 E11.01184
G1 X95.961 Y85.44 E11.0351
G1 X96.574 Y85.296 E11.06651
G1 X97.019 Y85.207 E11.08915
G1 X97.616 Y85.107 E11.11935
G1 X98.092 Y85.044 E11.14331
G1 X98.727 Y84.982 E11.17514
G1 X99.184 Y84.953 E11.19798
G1 X99.779 Y84.934 E11.22768
G1 X100.239 Y84.934 E11.25063
G1 X100.859 Y84.955 E11.28158
G1 X101.313 Y84.985 E11.30428
G1 X101.928 Y85.046 E11.33511
G1 X102.39 Y85.108 E11.35837
G1 X102.977 Y85.206 E11.38806
G1 X103.439 Y85.299 E11.41157
G1 X104.059 Y85.446 E11.44336
G1 X104.495 Y85.564 E11.4659
G1 X105.076 Y85.742 E11.49621
G1 X105.521 Y85.895 E11.51969
G1 X106.1 Y86.116 E11.55061
G1 X106.514 Y86.29 E11.57301
G1 X107.074 Y86.546 E11.60373
G1 X107.502 Y86.759 E11.62758
G1 X108.042 Y87.052 E11.65824
G1 X108.435 Y87.282 E11.68095
G1 X108.951 Y87.607 E11.71138
G1 X109.341 Y87.872 E11.7349
G1 X109.849 Y88.242 E11.76626
G1 X110.205 Y88.519 E11.78876
G1 X110.675 Y88.91 E11.81926
G1 X111.028 Y89.224 E11.84283
G1 X111.478 Y89.653 E11.87385
G1 X111.803 Y89.984 E11.89699
G1 X112.21 Y90.427 E11.92701
G1 X112.506 Y90.771 E11.94965
G1 X112.892 Y91.25 E11.98034
G1 X113.167 Y91.615 E12.00314
G1 X113.525 Y92.124 E12.03418
G1 X113.782 Y92.518 E12.05765
G1 X114.099 Y93.04 E12.08812
G1 X114.33 Y93.449 E12.11156
G1 X114.62 Y94.008 E12.14297
G1 X114.819 Y94.427 E12.16612
G1 X115.06 Y94.978 E12.19612
G1 X115.224 Y95.386 E12.21806
G1 X115.435 Y95.965 E12.2488
G1 X115.585 Y96.427 E12.27304
G1 X115.759 Y97.032 E12.30444
G1 X115.872 Y97.48 E12.32749
G1 X116 Y98.069 E12.35757
G1 X116.083 Y98.523 E12.38059
G1 X116.176 Y99.146 E12.41202
G1 X116.229 Y99.598 E12.43472
G1 X116.279 Y100.198 E12.46476
G1 X116.302 Y100.665 E12.48809
G1 X116.312 Y101.28 E12.51877
G1 X116.305 Y101.733 E12.54138
G1 X116.275 Y102.351 E12.57224
G1 X116.236 Y102.823 E12.59587
G1 X116.165 Y103.432 E12.62646
G1 X116.098 Y103.88 E12.64906
G1 X115.985 Y104.498 E12.6804
G1 X115.882 Y104.969 E12.70446
G1 X115.73 Y105.565 E12.73514
G1 X115.605 Y105.997 E12.75758
G1 X115.418 Y106.573 E12.78779
G1 X115.26 Y107.009 E12.81093
G1 X115.027 Y107.592 E12.84225
G1 X114.843 Y108.013 E12.86518
G1 X114.583 Y108.557 E12.89526
G1 X114.362 Y108.981 E12.91911
G1 X114.053 Y109.528 E12.95045
G1 X113.82 Y109.911 E12.97282
G1 X113.493 Y110.412 E13.00267
G1 X113.228 Y110.79 E13.0257
G1 X112.854 Y111.288 E13.05677
G1 X112.563 Y111.65 E13.07994
G1 X112.162 Y112.116 E13.11062
G1 X111.845 Y112.461 E13.13399
G1 X111.405 Y112.908 E13.16528
G1 X111.074 Y113.222 E13.18804
G1 X110.622 Y113.625 E13.21826
G1 X110.261 Y113.926 E13.24171
G1 X109.771 Y114.307 E13.27267
G1 X109.399 Y114.577 E13.2956
G1 X108.894 Y114.919 E13.32603
G1 X108.493 Y115.171 E13.34966
G1 X107.949 Y115.488 E13.38107
G1 X107.546 Y115.706 E13.40393
G1 X106.994 Y115.981 E13.4347
G1 X106.578 Y116.171 E13.45752
G1 X106.022 Y116.404 E13.48759
G1 X105.588 Y116.569 E13.51076
G1 X105.005 Y116.769 E13.54151
G1 X104.568 Y116.903 E13.56431
G1 X103.964 Y117.067 E13.59554
G1 X103.507 Y117.175 E13.61896
G1 X102.904 Y117.296 E13.64965
G1 X102.441 Y117.373 E13.67306
G1 X101.841 Y117.452 E13.70326
G1 X101.399 Y117.496 E13.72542
G1 X100.777 Y117.538 E13.75652
G1 X100.305 Y117.554 E13.78008
G1 X99.695 Y117.554 E13.81051
G1 X99.226 Y117.538 E13.83393
G1 X98.6 Y117.496 E13.86523
G1 X98.147 Y117.451 E13.88794
G1 X97.545 Y117.371 E13.91824
G1 X97.09 Y117.295 E13.94125
G1 X96.487 Y117.174 E13.97193
G1 X96.019 Y117.064 E13.99592
G1 X95.415 Y116.899 E14.02716
G1 X94.989 Y116.767 E14.04941
G1 X94.406 Y116.567 E14.08016
G1 X93.962 Y116.398 E14.10386
G1 X93.406 Y116.164 E14.13395
G1 X93.004 Y115.98 E14.15601
G1 X92.451 Y115.705 E14.18682
G1 X92.035 Y115.48 E14.21042
G1 X91.498 Y115.166 E14.24145
G1 X91.104 Y114.917 E14.26471
G1 X90.595 Y114.572 E14.29539
G1 X90.222 Y114.302 E14.31836
